X:686
T:Anglais
T:efter Alfred Petersson, Nättraby, Blekinge (SvL, Band 18, nr 294)
O:Nättraby, Blekinge
S:Svenska Låtar Blekinge nr 294
N:Svenska Låtar, Band 18 nr 294
R:Anglais
C:Alfred Petersson
M:2/4
L:1/16
Q:1/4=80
Z:Konverterad till abc-format av  Olle Paulsson 05-01-03
K:F
uc2|f2ag (fe).d.c|c2A2 F2f2|(eg).b.g (ec).d.e|f2ag f2:|
K:C
|:ef|(ga)gf e2c'2|(ag)fe d2de|(fg)fe d2a2|(ge)fd c2:|

(:musicend:)

(:music:)
